X:24
T: SUF[ERK3RUT IM HAEFELE
N: E1020A
O: Europa, Mitteleuropa, Deutschland; Frankreich, Elsass
R: Tanz - Lied
M: 3/8
L: 1/16
K: C
 | E2E2F2 | G3AG2 |
c2B2A2 | G3AG2 |
A2G2F2 | E3FE2 |
F2E2D2 | C4z2

@@@ Tune index: 4708
